components/icon/svg/24/ticket_ticket-multible.svg

<?xml version="1.0" encoding="UTF-8"?>
<svg width="24px" height="24px" viewBox="0 0 24 24" version="1.1" xmlns="http://www.w3.org/2000/svg" xmlns:xlink="http://www.w3.org/1999/xlink">
    <!-- Generator: Sketch 64 (93537) - https://sketch.com -->
    <title>ic-db_ticket_ticket-multible_24</title>
    <desc>Created with Sketch.</desc>
    <g id="Symbols" stroke="none" stroke-width="1" fill="none" fill-rule="evenodd">
        <g id="24dp-Icon/Ticket/Ticket-Multible" fill="#282D37">
            <path d="M2,19 L2,9 C2,7.3438 3.3438,6 5,6 L12,6 C13.6562,6 15,7.3438 15,9 L15,19 C15,20.6562 13.6562,22 12,22 L5,22 C3.3438,22 2,20.6562 2,19 Z M4,19 C4,19.5312 4.4688,20 5,20 L12,20 C12.5312,20 13,19.5312 13,19 L13,9 C13,8.4375 12.5312,8 12,8 L5,8 C4.4688,8 4,8.4375 4,9 L4,19 Z M6,17 C6,17.5312 6.4688,18 7,18 C7.5625,18 8,17.5312 8,17 C8,16.4375 7.5625,16 7,16 C6.4688,16 6,16.4375 6,17 Z M9,17 C9,17.5312 9.4375,18 10,18 C10.5312,18 11,17.5312 11,17 C11,16.4375 10.5312,16 10,16 C9.4375,16 9,16.4375 9,17 Z M11,3 C11,2.4375 11.4688,2 12,2 L19,2 C20.6562,2 22,3.3438 22,5 L22,15 C22,16.5625 20.7188,18 19,18 L18,18 C17.4688,18 17.0312,17.5312 17.0312,17 C17.0312,16.4375 17.4688,16 18,16 L19,16 C19.5312,16 20,15.5625 20,15 L20,5 C20,4.4688 19.5312,4 19,4 L12,4 C11.4688,4 11,3.5625 11,3 Z" id="🎨-Color"></path>
        </g>
    </g>
</svg>

<svg width="24" height="24" xmlns="http://www.w3.org/2000/svg"><path d="M2 19V9a3 3 0 013-3h7a3 3 0 013 3v10a3 3 0 01-3 3H5a3 3 0 01-3-3zm2 0c0 .531.469 1 1 1h7c.531 0 1-.469 1-1V9c0-.563-.469-1-1-1H5c-.531 0-1 .438-1 1v10zm2-2c0 .531.469 1 1 1 .563 0 1-.469 1-1 0-.563-.438-1-1-1-.531 0-1 .438-1 1zm3 0c0 .531.438 1 1 1 .531 0 1-.469 1-1 0-.563-.469-1-1-1-.563 0-1 .438-1 1zm2-14c0-.563.469-1 1-1h7a3 3 0 013 3v10c0 1.563-1.281 3-3 3h-1c-.531 0-.969-.469-.969-1 0-.563.438-1 .969-1h1c.531 0 1-.438 1-1V5c0-.531-.469-1-1-1h-7c-.531 0-1-.438-1-1z" fill="#282D37" fill-rule="evenodd"/></svg>
